X: 10
T:Duke of York's March. TLY.010
M:4/4
L:1/8
Q:180
S:Wm.Tildesley,Swinton,Lancs.1860s.
R:March
O:England.
A:Lancashire.
H:1860.
Z:vmp.Taz Tarry.
K:D
D2 D>D F2F>F|AFAF D2 AB/2c/2|dAdA dAFD|A2 A>A A2 z2|!
a3 f d3 f|edef gfed|a3f gdgf|e2 e>e e2z2:|!
|:A2A>A Adfg|A2 A>A Adfa|geeg fdda|bagf fedc|!
d2 de dABc|B2 B>B B2 z/4 G/4A/4B/4c/4d/4e/4f/4|g>g f>f e>e d>d|\
c2 A>B AGFE|!
D2 D>D F2 F>F|AFAF D2ge|eaae bgec|d2 d>d d2 z2:|]
